packages/ui-icons/svg/Line/forward.svg

<svg viewBox="0 0 1920 1920" version="1.1" xmlns="http://www.w3.org/2000/svg">
    <path d="M1246.2464,64 L1155.7504,154.496 L1633.7024,632.448 L1042.8544,632.448 C467.8784,632.448 0.0384,1100.416 0.0384,1675.392 L0.0384,1784.448 L128.0384,1784.448 L128.0384,1675.392 C128.0384,1170.816 538.4064,760.448 1042.8544,760.448 L1633.7024,760.448 L1155.7504,1238.528 L1246.2464,1329.024 L1878.6944,696.448 L1246.2464,64 Z" stroke="none" stroke-width="1" fill-rule="evenodd"/>
</svg>

<svg viewBox="0 0 1920 1920" xmlns="http://www.w3.org/2000/svg">
    <path d="m1246.246 64-90.496 90.496 477.952 477.952h-590.848C467.878 632.448.038 1100.416.038 1675.392v109.056h128v-109.056c0-504.576 410.368-914.944 914.816-914.944h590.848l-477.952 478.08 90.496 90.496 632.448-632.576L1246.246 64Z" fill-rule="evenodd"/>
</svg>
